X:1
T:Title
%%score { 1 | 2 }
L:1/8
M:4/4
K:Ab
V:1 bass nm="Grand Piano"
V:2 bass 
V:1
 z4 z2[Q:1/4=96] [E,A,C][A,B,D] | [A,CE]2 [CEA]>[DEB] [CEA]2 [EG]>[EF] | G6 F>E | %3
 E2 [Gd]>[Gd] [Gd]2 [Ec]>[EB] | [Ec]6 cd | e2 [Gc]>[GB] [FA]2 [FB][Fc] | [Fd]2 [DB]>[=DA] G2 FE | %7
 [CA]2 [Fd][Ec] [Ec] [DB]2 [DE] | [CA]6 z2 | c3 B A2 G>F | [A,CE]2 F>E D2 [Bd]>[Ac] | %11
 [GB]>[GB] [GB]>A G2 B2 | c2 =d2 [Ge]3- [Ge]/[Ee]/ | [Ee]3- [Ee]/[EG]/ [EA]2 [DGB]>[DGB] | %14
 [CAc]2 [=Af]>[Ac] [ce]2 [Bd]2 | (3[Fd][Fd][Fd] [Fd]>[Ec] [DB]2 [DF]>[Fd] | %16
 [Ec]3 [B,EG] [DEB]2 [CEA]2 |] %17
V:2
 z4 z2 A,,A,, | A,,2 A,,>A,, A,,2 [B,,B,]>[B,,B,] | [E,B,D]6 [E,B,D]>[E,B,D] | %3
 [E,B,D]2 [E,B,]>[E,B,] [E,B,]2 [E,A,]>[E,G,] | [A,,A,]6[K:treble] [A,E][A,B,A] | %5
 [A,CA]2[K:bass] [E,E]>[=E,D] [F,C]2 [D,B,][C,=A,] | %6
 [B,,B,]2 [B,,B,]>[B,,B,] [E,B,E]2 [E,G,D][E,G,D] | [A,,A,]2 [B,,A,][C,A,] [D,A,] [D,A,]2 [E,G,] | %8
 [A,,A,]6 z2 | [A,E]3 [E,G,D] [F,A,C]2 [D,A,D]>[D,A,D] | A,,2 D>C B,2 [E,G,]>[E,A,] | %11
 [E,D]>[E,D] [E,D]>[E,CE] [E,B,E]2[K:treble] [G,E]2 | [A,EA]2 [B,A]2[K:bass] [E,B,]3- [E,B,]/E,/ | %13
 E,3- E,/D,/ C,2 E,>E, | A,2 [F,C]>[K:treble][F,F] [B,F]2 [B,F]2 | %15
 (3[B,,B,][B,,B,][B,,B,] [B,,B,]>[C,F,] [D,F,]2 [D,B,]>[D,A,] | [E,A,]3 E, A,,2 A,,2 |] %17

